assets/temperature_gauge_icon.svg

<?xml version="1.0" encoding="utf-8"?>
<!-- Generator: Adobe Illustrator 25.2.0, SVG Export Plug-In . SVG Version: 6.00 Build 0)  -->
<svg version="1.1" id="Layer_1" xmlns="http://www.w3.org/2000/svg" xmlns:xlink="http://www.w3.org/1999/xlink" x="0px" y="0px"
	 viewBox="0 0 936 936" style="enable-background:new 0 0 936 936;" xml:space="preserve">
<style type="text/css">
	.st0{fill:#CC3142;}
</style>
<g>
	<path class="st0" d="M384.6,652.7l187.6-267.9l-52.4-36.7L332.2,616c-29.6-5.7-61.1,5.8-79.4,32.1c-24.9,35.6-16.3,84.7,19.3,109.6
		c35.6,24.9,84.7,16.3,109.6-19.3C400,712.1,400.1,678.6,384.6,652.7z"/>
	<path d="M316.3,820.1c-24.9,0-50.1-7.4-72-22.7c-56.9-39.8-70.8-118.5-30.9-175.4c21.8-31.1,55.6-50.3,93.3-53.2l24.5-35l0,0
		l42.4-60.6c0,0,0,0,0,0L458.5,352c0,0,0,0,0,0l42.4-60.6l0,0l84.9-121.2c0,0,0,0,0,0L600,150c12.2-17.5,30.6-29.2,51.6-32.9
		c21-3.7,42.2,1,59.7,13.2c36.1,25.3,44.9,75.3,19.6,111.4L437.7,660.6c10.2,36.5,3.7,74.8-18,105.9
		C395.2,801.4,356,820.1,316.3,820.1z M341.8,553.5l-21.5,30.8c-1.8,2.6-4.7,4.1-7.8,4.3c-33.5,1.3-63.7,17.7-82.8,45
		c-33.5,47.9-21.8,114,26,147.5c47.9,33.5,114,21.8,147.5-26c19.1-27.3,24.2-61.2,13.9-93.2c-1-3-0.5-6.2,1.3-8.8l296.1-422.8
		c19-27.1,12.4-64.6-14.7-83.5c-13.1-9.2-29.1-12.7-44.8-9.9c-15.8,2.8-29.5,11.5-38.7,24.7l-8.4,12l49.1,34.4
		c2.8,1.9,4.3,5,4.3,8.2c0,2-0.6,4-1.8,5.7c-3.2,4.5-9.4,5.6-13.9,2.5l-49.1-34.4l-31,44.2l49.1,34.4c2.8,1.9,4.3,5,4.3,8.2
		c0,2-0.6,4-1.8,5.7c-3.2,4.5-9.4,5.6-13.9,2.5L554,250.5l-31,44.2l49.1,34.4c2.8,1.9,4.3,5,4.3,8.2c0,2-0.6,4-1.8,5.7
		c-3.2,4.5-9.4,5.6-13.9,2.5l-49.1-34.4l-31,44.2l49.1,34.4c2.8,1.9,4.3,5,4.3,8.2c0,2-0.6,4-1.8,5.7c-3.2,4.5-9.4,5.6-13.9,2.5
		l-49.1-34.4l-31,44.2l49.1,34.4c2.8,1.9,4.3,5,4.3,8.2c0,2-0.6,4-1.8,5.7c-3.2,4.5-9.4,5.6-13.9,2.5l-49.1-34.4l-31,44.2l49.1,34.4
		c2.8,1.9,4.3,5,4.3,8.2c0,2-0.6,4-1.8,5.7c-3.2,4.5-9.4,5.6-13.9,2.5l-49.1-34.4l-31,44.2l49.1,34.4c2.8,1.9,4.3,5,4.3,8.2
		c0,2-0.6,4-1.8,5.7c-3.2,4.5-9.4,5.6-13.9,2.5L341.8,553.5z"/>
</g>
</svg>

<?xml version="1.0" encoding="UTF-8" standalone="no"?>
<!DOCTYPE svg PUBLIC "-//W3C//DTD SVG 1.1//EN" "http://www.w3.org/Graphics/SVG/1.1/DTD/svg11.dtd">
<!-- Created with Vectornator (http://vectornator.io/) -->
<svg height="100%" stroke-miterlimit="10" style="fill-rule:nonzero;clip-rule:evenodd;stroke-linecap:round;stroke-linejoin:round;" version="1.1" viewBox="0 0 936 936" width="100%" xml:space="preserve" xmlns="http://www.w3.org/2000/svg" xmlns:vectornator="http://vectornator.io" xmlns:xlink="http://www.w3.org/1999/xlink">
<defs/>
<path d="M0 0L936 0L936 936L0 936L0 0Z" fill="#e90520" fill-opacity="0" fill-rule="nonzero" opacity="1" stroke="none"/>
<g id="Layer-1" vectornator:layerName="Layer 1">
<path d="M844 260.707C844 166.428 767.572 90 673.293 90L260.707 90C166.428 90 90 166.428 90 260.707L90 673.293C90 767.572 166.428 844 260.707 844L673.293 844C767.572 844 844 767.572 844 673.293L844 260.707Z" fill="#ffffff" fill-rule="nonzero" opacity="1" stroke="none" vectornator:layerName="Rectangle 1"/>
</g>
<g id="Untitled" vectornator:layerName="Untitled">
<g opacity="1" vectornator:layerName="g">
<path d="M316.3 820.1C291.4 820.1 266.2 812.7 244.3 797.4C187.4 757.6 173.5 678.9 213.4 622C235.2 590.9 269 571.7 306.7 568.8L331.2 533.8L331.2 533.8L373.6 473.2L373.6 473.2L458.5 352L458.5 352L500.9 291.4L500.9 291.4L585.8 170.2L585.8 170.2L600 150C612.2 132.5 630.6 120.8 651.6 117.1C672.6 113.4 693.8 118.1 711.3 130.3C747.4 155.6 756.2 205.6 730.9 241.7L437.7 660.6C447.9 697.1 441.4 735.4 419.7 766.5C395.2 801.4 356 820.1 316.3 820.1ZM341.8 553.5L320.3 584.3C318.5 586.9 315.6 588.4 312.5 588.6C279 589.9 248.8 606.3 229.7 633.6C196.2 681.5 207.9 747.6 255.7 781.1C303.6 814.6 369.7 802.9 403.2 755.1C422.3 727.8 427.4 693.9 417.1 661.9C416.1 658.9 416.6 655.7 418.4 653.1L714.5 230.3C733.5 203.2 726.9 165.7 699.8 146.8C686.7 137.6 670.7 134.1 655 136.9C639.2 139.7 625.5 148.4 616.3 161.6L607.9 173.6L657 208C659.8 209.9 661.3 213 661.3 216.2C661.3 218.2 660.7 220.2 659.5 221.9C656.3 226.4 650.1 227.5 645.6 224.4L596.5 190L565.5 234.2L614.6 268.6C617.4 270.5 618.9 273.6 618.9 276.8C618.9 278.8 618.3 280.8 617.1 282.5C613.9 287 607.7 288.1 603.2 285L554 250.5L523 294.7L572.1 329.1C574.9 331 576.4 334.1 576.4 337.3C576.4 339.3 575.8 341.3 574.6 343C571.4 347.5 565.2 348.6 560.7 345.5L511.6 311.1L480.6 355.3L529.7 389.7C532.5 391.6 534 394.7 534 397.9C534 399.9 533.4 401.9 532.2 403.6C529 408.1 522.8 409.2 518.3 406.1L469.2 371.7L438.2 415.9L487.3 450.3C490.1 452.2 491.6 455.3 491.6 458.5C491.6 460.5 491 462.5 489.8 464.2C486.6 468.7 480.4 469.8 475.9 466.7L426.8 432.3L395.8 476.5L444.9 510.9C447.7 512.8 449.2 515.9 449.2 519.1C449.2 521.1 448.6 523.1 447.4 524.8C444.2 529.3 438 530.4 433.5 527.3L384.4 492.9L353.4 537.1L402.5 571.5C405.3 573.4 406.8 576.5 406.8 579.7C406.8 581.7 406.2 583.7 405 585.4C401.8 589.9 395.6 591 391.1 587.9L341.8 553.5Z" fill="#000000" fill-rule="nonzero" opacity="1" stroke="none" vectornator:layerName="path"/>
<path d="M384.6 652.7L572.2 384.8L519.8 348.1L332.2 616C302.6 610.3 271.1 621.8 252.8 648.1C227.9 683.7 236.5 732.8 272.1 757.7C307.7 782.6 356.8 774 381.7 738.4C400 712.1 400.1 678.6 384.6 652.7Z" fill="#ff0503" fill-rule="nonzero" opacity="1" stroke="none" vectornator:layerName="path"/>
</g>
</g>
</svg>
